X:1
T:The Raging Canal
M:4/4
L:1/8
K:D
 A,| DD E=FG-F AE| ED DD D3 A| dd Bd cA B^G| E2 F^G A2 z| A| dd Bd cA B^G|\
 EE dB A2 A,2| DD E=F GF AE| ED DD D3||
